X: 22
T: No_124.krn
N: Derived from No_124.krn
%%abc-version 2.0
%%abcx-abcm2ps-target-version 5.9.1 (29 Sep 2008)
%%abc-creator hum2abc beta
%%abcx-conversion-date 2019/03/15 08:29:13
%%humdrum-veritas 1919512571
%%humdrum-veritas-data 1256634106
%%linebreak <none>
%%barnumbers 0
L: 1/4
M: 3/4
%%staves {1 2}
V: 1
V: 2 clef=bass
K: Gb
[V:1] F2E | 
[V:2] [K:clef=bass][M:3/4]z3 | 
[V:1] F3 | 
[V:2] (3!accent!G,,/ z/ G,,/ (3!accent!G,,/ z/ G,,/ (3!accent!G,,/ z/ G,,/ ||  
[V:1] [M:5/4]E2E2D | 
[V:2] [M:5/4]z4z | 
[V:1] B,3-B,2 ||  
[V:2] z4z ||  
[V:1] [M:3/4]E3 ||  
[V:2] [M:3/4]z3 ||  
[V:1] [M:5/4]E3DE ||  
[V:2] [M:5/4]z4z ||  
[V:1] [M:2/4]B,B,/A,/ ||  
[V:2] [M:2/4]z2 ||  
[V:1] [M:4/4]G,3E, ||  
[V:2] [M:4/4]z4 ||  
[V:1] [M:3/4]G,2E, | 
[V:2] [M:3/4]z3 | 
[V:1] G,3 ||  
[V:2] z3 ||  
[V:1] [M:4/4]E,/ G,/E,2-E,/D,/ ||  
[V:2] [M:4/4]z4 ||  
[V:1] [M:3/4]B,,3 | 
[V:2] [M:3/4]z3 | 
[V:1] G,2E, | 
[V:2] z3 | 
[V:1] G,3 ||  
[V:2] z3 ||  
[V:1] [M:2/4]E,3/G,/ ||  
[V:2] [M:2/4]z2 ||  
[V:1] [M:4/4]E,2-E,2 ||  
[V:2] [M:4/4]z4 ||  
[V:1] [M:3/4]E3 ||  
[V:2] [M:3/4]z3 ||  
[V:1] [M:5/4]E3DE ||  
[V:2] [M:5/4]z4z ||  
[V:1] [M:2/4]B,B,/A,/ ||  
[V:2] [M:2/4]z2 ||  
[V:1] [M:4/4]G,3E, ||  
[V:2] [M:4/4]z4 ||  
[V:1] [M:3/4]G,2E, | 
[V:2] [M:3/4]z3 | 
[V:1] G,3 ||  
[V:2] z3 ||  
[V:1] [M:4/4]E,E,2-E,/D,/ ||  
[V:2] [M:4/4]z4 ||  
[V:1] [M:3/4]B,,3 | 
[V:2] [M:3/4]z3 | 
[V:1] G,2E, | 
[V:2] z3 | 
[V:1] G,3 ||  
[V:2] z3 ||  
[V:1] [M:2/4]E,3/G,/ | 
[V:2] [M:2/4]z2 | 
[V:1] E,2- | 
[V:2] z2 | 
[V:1] E,2 |]  
[V:2] z2 |]  



